X: 42757
T: White Leaf, The
R: reel
M: 4/4
K: Amajor
EFG|A3c eAcB|Acef edcd|Bcde f~d3|fbgb afec|
AGAc eAcB|Acef edcd|Bcde fbbg|afec AEFG|
[A3E3]c eAcB|Acef edcd|Bcde f~d3|(3fga gaaf ec|
AGAc eAcB|Acef edcd|Bcde fbbg|afec ABce||
aA (3AAA cAce|a2ga fece|bf (3fff fece|bffe ^defg|
aA (3AAA cAce|a2ga fedc|Bcde fbbg|afec ABce|
aA (3AAA gA (3AAA|aAga fece|bf (3fff dfBf|bffe ^defg|
aA (3AAA EAce|(3aba(3gag fedc|Bcde fbbg|afec A||

